mobile/apps/auth/assets/custom-icons/icons/teleport.svg

<svg width="500" height="500" viewBox="0 0 500 500" fill="none" xmlns="http://www.w3.org/2000/svg">
<path d="M487.685 320.622L438.93 279.108L439.833 273.474C440.854 265.859 441.187 257.91 441.187 250.059C441.187 240.303 440.677 230.273 438.93 221.009L487.685 179.555L488.765 178.652C490.06 177.377 490.944 175.709 491.277 173.922C491.631 172.116 491.395 170.252 490.649 168.583C480.697 138.553 463.524 109.975 442.405 86.2829C439.421 82.8886 435.2 81.6512 431.236 83.379L369.804 104.341L364.701 100.395C350.714 89.9931 335.371 81.5543 319.098 75.3111L306.93 12.8563L306.577 11.5607C305.971 9.79406 304.897 8.24315 303.468 7.04613C302.039 5.84822 300.312 5.06393 298.473 4.78924L298.451 4.76903C266.613 -1.58968 233.833 -1.58968 201.996 4.76903C199.929 5.08325 198.012 6.02592 196.498 7.45886C194.984 8.91049 193.952 10.7756 193.536 12.8361L181.371 75.2925L175.85 77.4904C159.539 84.1641 144.305 93.1925 130.643 104.321L69.2275 83.3395L67.8728 82.9081C66.0784 82.4759 64.2008 82.5729 62.4551 83.1633C60.708 83.7715 59.171 84.8507 58.0189 86.2829C36.872 109.974 19.7275 138.552 9.78981 168.583C8.9379 170.467 8.76884 172.588 9.31339 174.59C9.85641 176.592 11.0768 178.358 12.769 179.555L61.5195 221.029L60.6025 226.662C59.5815 234.278 59.2673 242.267 59.2673 250.059C59.1323 259.794 59.884 269.511 61.5196 279.108L12.7908 320.622L11.7077 321.504C10.4043 322.799 9.52452 324.449 9.18538 326.254C8.8479 328.06 9.0659 329.925 9.81154 331.592C19.7492 361.643 36.8936 390.183 58.0391 413.833C61.04 417.249 65.2684 418.485 69.2275 416.778L130.643 395.776L135.122 399.388C149.239 410.026 164.817 418.604 181.371 424.825L193.536 487.32L193.87 488.615C194.481 490.363 195.56 491.934 196.993 493.132C198.424 494.328 200.153 495.093 201.996 495.388C217.913 498.293 233.829 500 250.243 500C266.64 500 282.557 498.293 298.473 495.388C300.535 495.053 302.452 494.112 303.963 492.679C305.474 491.226 306.511 489.363 306.931 487.321L319.117 424.825L325.201 422.372C341.283 415.581 356.346 406.631 369.826 395.776L431.236 416.779L432.57 417.23C436.143 418.192 439.755 416.876 442.424 413.833C463.583 390.183 480.717 361.643 490.649 331.592C491.513 329.709 491.67 327.57 491.14 325.567C490.591 323.566 489.374 321.818 487.685 320.622ZM250.224 396.305C169.266 396.305 103.642 330.808 103.642 250.019C103.642 169.235 169.219 103.72 250.213 103.714C331.186 103.72 396.809 169.235 396.809 250.019C396.809 330.808 331.181 396.305 250.224 396.305Z" fill="#512FC9"/>
<path d="M250.221 150.013C195 150.017 150.072 194.877 150.072 250.013C150.072 305.15 195.001 350.005 250.225 350.005C305.45 350.005 350.378 305.15 350.378 250.013C350.378 194.877 305.446 150.017 250.221 150.013ZM250.225 308.774C217.735 308.774 191.303 282.415 191.303 250.013C191.303 217.607 217.731 191.245 250.213 191.245C282.707 191.245 309.146 217.607 309.146 250.013C309.146 282.415 282.716 308.774 250.225 308.774Z" fill="#512FC9"/>
</svg>

<svg xmlns="http://www.w3.org/2000/svg" fill="none" viewBox="0 0 500 500"><path fill="#512FC9" d="m487.685 320.622-48.755-41.514.903-5.634c1.021-7.615 1.354-15.564 1.354-23.415 0-9.756-.51-19.786-2.257-29.05l48.755-41.454 1.08-.903a8.978 8.978 0 0 0 2.512-4.73 8.898 8.898 0 0 0-.628-5.339c-9.952-30.03-27.125-58.608-48.244-82.3-2.984-3.394-7.205-4.632-11.169-2.904l-61.432 20.962-5.103-3.946a191.16 191.16 0 0 0-45.603-25.084L306.93 12.856l-.353-1.295a10.194 10.194 0 0 0-3.109-4.515 10.103 10.103 0 0 0-4.995-2.257l-.022-.02a246.238 246.238 0 0 0-96.455 0 10.24 10.24 0 0 0-5.498 2.69 10.241 10.241 0 0 0-2.962 5.377l-12.165 62.457-5.521 2.197a178.707 178.707 0 0 0-45.207 26.831L69.228 83.34l-1.355-.432a9.77 9.77 0 0 0-5.418.255 9.837 9.837 0 0 0-4.436 3.12c-21.147 23.691-38.291 52.269-48.23 82.3a8.9 8.9 0 0 0-.476 6.007 8.956 8.956 0 0 0 3.456 4.965l48.75 41.474-.916 5.633c-1.022 7.616-1.336 15.605-1.336 23.397a159.667 159.667 0 0 0 2.253 29.049l-48.73 41.514-1.082.882a9.023 9.023 0 0 0-1.896 10.088c9.937 30.051 27.082 58.591 48.227 82.241 3.001 3.416 7.23 4.652 11.189 2.945l61.415-21.002 4.479 3.612a185.035 185.035 0 0 0 46.249 25.437l12.165 62.495.334 1.295a10.35 10.35 0 0 0 3.123 4.517 10.32 10.32 0 0 0 5.003 2.256c15.917 2.905 31.833 4.612 48.247 4.612 16.397 0 32.314-1.707 48.23-4.612a10.4 10.4 0 0 0 5.49-2.709 10.32 10.32 0 0 0 2.968-5.358l12.186-62.496 6.084-2.453c16.082-6.791 31.145-15.741 44.625-26.596l61.41 21.003 1.334.451c3.573.962 7.185-.354 9.854-3.397 21.159-23.65 38.293-52.19 48.225-82.241.864-1.883 1.021-4.022.491-6.025a8.954 8.954 0 0 0-3.455-4.945Zm-237.461 75.683c-80.958 0-146.582-65.497-146.582-146.286 0-80.784 65.577-146.299 146.571-146.305 80.973.006 146.596 65.521 146.596 146.305 0 80.789-65.628 146.286-146.585 146.286Z"/><path fill="#512FC9" d="M250.221 150.013c-55.221.004-100.149 44.864-100.149 100 0 55.137 44.929 99.992 100.153 99.992 55.225 0 100.153-44.855 100.153-99.992 0-55.136-44.932-99.996-100.157-100Zm.004 158.761c-32.49 0-58.922-26.359-58.922-58.761 0-32.406 26.428-58.768 58.91-58.768 32.494 0 58.933 26.362 58.933 58.768 0 32.402-26.43 58.761-58.921 58.761Z"/></svg>
